three-dots-hollow.svg

<svg viewBox="0 0 500 500" xmlns="http://www.w3.org/2000/svg">
  <g fill="#474747">
    <path d="M89.823 194.447c-29.815 0-54.072 24.257-54.072 54.072s24.257 54.072 54.072 54.072 54.072-24.257 54.072-54.072-24.256-54.072-54.072-54.072zm0 88.145c-18.787 0-34.072-15.285-34.072-34.072s15.285-34.072 34.072-34.072 34.072 15.285 34.072 34.072-15.285 34.072-34.072 34.072zM253.149 194.447c-29.815 0-54.072 24.257-54.072 54.072s24.257 54.072 54.072 54.072 54.072-24.257 54.072-54.072-24.256-54.072-54.072-54.072zm0 88.145c-18.787 0-34.072-15.285-34.072-34.072s15.285-34.072 34.072-34.072 34.072 15.285 34.072 34.072-15.284 34.072-34.072 34.072zM416.476 194.447c-29.815 0-54.072 24.257-54.072 54.072s24.257 54.072 54.072 54.072 54.072-24.257 54.072-54.072-24.257-54.072-54.072-54.072zm0 88.145c-18.787 0-34.072-15.285-34.072-34.072s15.285-34.072 34.072-34.072 34.072 15.285 34.072 34.072-15.285 34.072-34.072 34.072z"/>
  </g>
</svg>

<?xml version="1.0" ?><svg enable-background="new 0 0 500 500" id="Layer_2" version="1.1" viewBox="0 0 500 500" xml:space="preserve" xmlns="http://www.w3.org/2000/svg" xmlns:xlink="http://www.w3.org/1999/xlink"><g><path d="M89.823,194.447c-29.815,0-54.072,24.257-54.072,54.072s24.257,54.072,54.072,54.072   s54.072-24.257,54.072-54.072S119.639,194.447,89.823,194.447z M89.823,282.592c-18.787,0-34.072-15.285-34.072-34.072   s15.285-34.072,34.072-34.072s34.072,15.285,34.072,34.072S108.61,282.592,89.823,282.592z" fill="#474747"/><path d="M253.149,194.447c-29.815,0-54.072,24.257-54.072,54.072s24.257,54.072,54.072,54.072   s54.072-24.257,54.072-54.072S282.965,194.447,253.149,194.447z M253.149,282.592c-18.787,0-34.072-15.285-34.072-34.072   s15.285-34.072,34.072-34.072s34.072,15.285,34.072,34.072S271.937,282.592,253.149,282.592z" fill="#474747"/><path d="M416.476,194.447c-29.815,0-54.072,24.257-54.072,54.072s24.257,54.072,54.072,54.072   s54.072-24.257,54.072-54.072S446.291,194.447,416.476,194.447z M416.476,282.592c-18.787,0-34.072-15.285-34.072-34.072   s15.285-34.072,34.072-34.072s34.072,15.285,34.072,34.072S435.263,282.592,416.476,282.592z" fill="#474747"/></g></svg>
